icon-themes/breeze_svg/cmd/32/extrusiontiltup.svg

<svg viewBox="0 0 32 32" xmlns="http://www.w3.org/2000/svg"><path d="m23.5 4-1 1-4 4 .707031.7070312 3.792969-3.7929687v9.0859375h1v-9.0859375l3.792969 3.7929687.707031-.7070312-4-4zm-17 7a.5.5 0 0 0 -.5.5.5.5 0 0 0 .5.5.5.5 0 0 0 .5-.5.5.5 0 0 0 -.5-.5zm-1 3a.5.5 0 0 0 -.5.5.5.5 0 0 0 .5.5.5.5 0 0 0 .5-.5.5.5 0 0 0 -.5-.5zm0 4a.5.5 0 0 0 -.5.5.5.5 0 0 0 .5.5.5.5 0 0 0 .5-.5.5.5 0 0 0 -.5-.5zm18 0a.5.5 0 0 0 -.5.5.5.5 0 0 0 .5.5.5.5 0 0 0 .5-.5.5.5 0 0 0 -.5-.5zm-17 3a.5.5 0 0 0 -.5.5.5.5 0 0 0 .5.5.5.5 0 0 0 .5-.5.5.5 0 0 0 -.5-.5zm16 0a.5.5 0 0 0 -.5.5.5.5 0 0 0 .5.5.5.5 0 0 0 .5-.5.5.5 0 0 0 -.5-.5zm-14 3a.5.5 0 0 0 -.5.5.5.5 0 0 0 .5.5.5.5 0 0 0 .5-.5.5.5 0 0 0 -.5-.5zm12 0a.5.5 0 0 0 -.5.5.5.5 0 0 0 .5.5.5.5 0 0 0 .5-.5.5.5 0 0 0 -.5-.5zm-9 2a.5.5 0 0 0 -.5.5.5.5 0 0 0 .5.5.5.5 0 0 0 .5-.5.5.5 0 0 0 -.5-.5zm6 0a.5.5 0 0 0 -.5.5.5.5 0 0 0 .5.5.5.5 0 0 0 .5-.5.5.5 0 0 0 -.5-.5zm-3 1a.5.5 0 0 0 -.5.5.5.5 0 0 0 .5.5.5.5 0 0 0 .5-.5.5.5 0 0 0 -.5-.5z" fill="#4d4d4d"/><path d="m4 16v1h24v-1z" fill="#1d99f3"/></svg>

<svg xmlns="http://www.w3.org/2000/svg" viewBox="0 0 32 32">
 <path 
     style="fill:#4d4d4d" 
     d="M 23.5 4 L 22.5 5 L 18.5 9 L 19.207031 9.7070312 L 23 5.9140625 L 23 15 L 24 15 L 24 5.9140625 L 27.792969 9.7070312 L 28.5 9 L 24.5 5 L 23.5 4 z M 6.5 11 A 0.5 0.5 0 0 0 6 11.5 A 0.5 0.5 0 0 0 6.5 12 A 0.5 0.5 0 0 0 7 11.5 A 0.5 0.5 0 0 0 6.5 11 z M 5.5 14 A 0.5 0.5 0 0 0 5 14.5 A 0.5 0.5 0 0 0 5.5 15 A 0.5 0.5 0 0 0 6 14.5 A 0.5 0.5 0 0 0 5.5 14 z M 5.5 18 A 0.5 0.5 0 0 0 5 18.5 A 0.5 0.5 0 0 0 5.5 19 A 0.5 0.5 0 0 0 6 18.5 A 0.5 0.5 0 0 0 5.5 18 z M 23.5 18 A 0.5 0.5 0 0 0 23 18.5 A 0.5 0.5 0 0 0 23.5 19 A 0.5 0.5 0 0 0 24 18.5 A 0.5 0.5 0 0 0 23.5 18 z M 6.5 21 A 0.5 0.5 0 0 0 6 21.5 A 0.5 0.5 0 0 0 6.5 22 A 0.5 0.5 0 0 0 7 21.5 A 0.5 0.5 0 0 0 6.5 21 z M 22.5 21 A 0.5 0.5 0 0 0 22 21.5 A 0.5 0.5 0 0 0 22.5 22 A 0.5 0.5 0 0 0 23 21.5 A 0.5 0.5 0 0 0 22.5 21 z M 8.5 24 A 0.5 0.5 0 0 0 8 24.5 A 0.5 0.5 0 0 0 8.5 25 A 0.5 0.5 0 0 0 9 24.5 A 0.5 0.5 0 0 0 8.5 24 z M 20.5 24 A 0.5 0.5 0 0 0 20 24.5 A 0.5 0.5 0 0 0 20.5 25 A 0.5 0.5 0 0 0 21 24.5 A 0.5 0.5 0 0 0 20.5 24 z M 11.5 26 A 0.5 0.5 0 0 0 11 26.5 A 0.5 0.5 0 0 0 11.5 27 A 0.5 0.5 0 0 0 12 26.5 A 0.5 0.5 0 0 0 11.5 26 z M 17.5 26 A 0.5 0.5 0 0 0 17 26.5 A 0.5 0.5 0 0 0 17.5 27 A 0.5 0.5 0 0 0 18 26.5 A 0.5 0.5 0 0 0 17.5 26 z M 14.5 27 A 0.5 0.5 0 0 0 14 27.5 A 0.5 0.5 0 0 0 14.5 28 A 0.5 0.5 0 0 0 15 27.5 A 0.5 0.5 0 0 0 14.5 27 z "
     />
 <path 
     style="fill:#1d99f3" 
     d="M 4 16 L 4 17 L 28 17 L 28 16 L 4 16 z "
     />
</svg>
